src/components/Icon/assets/channel-filled.svg

<svg width="24" height="24" viewBox="0 0 24 24" fill="none" xmlns="http://www.w3.org/2000/svg">
<path fill-rule="evenodd" clip-rule="evenodd" d="M15.2134 14.0649C14.3684 14.0649 14.0154 13.4549 14.0154 11.9599C14.0154 10.4649 14.3684 9.8549 15.2134 9.8549C16.0584 9.8549 16.4114 10.4649 16.4114 11.9599C16.4114 13.4549 16.0584 14.0649 15.2134 14.0649V14.0649ZM8.78639 14.0649C7.94139 14.0649 7.58839 13.4549 7.58839 11.9599C7.58839 10.4649 7.94139 9.8549 8.78639 9.8549C9.63139 9.8549 9.98439 10.4649 9.98439 11.9599C9.98439 13.4549 9.63139 14.0649 8.78639 14.0649V14.0649ZM20.7944 18.3819C20.5844 17.7519 20.6374 17.0659 20.9364 16.4729C21.7894 14.7799 22.1794 12.8149 21.9214 10.7369C21.3634 6.2509 17.7454 2.6239 13.2574 2.0769C6.7494 1.2829 1.2834 6.7489 2.0764 13.2569C2.6244 17.7449 6.2514 21.3639 10.7374 21.9209C12.8154 22.1799 14.7794 21.7889 16.4724 20.9369C17.0664 20.6379 17.7524 20.5839 18.3824 20.7939L20.4194 21.4729C21.0704 21.6899 21.6904 21.0699 21.4734 20.4189L20.7944 18.3819Z" fill="#65676A"/>
</svg>

<svg xmlns="http://www.w3.org/2000/svg" width="24" height="24" viewBox="0 0 24 24">
    <path fill="#65676A" fill-rule="evenodd" d="M15.213 14.065c-.845 0-1.198-.61-1.198-2.105s.353-2.105 1.198-2.105 1.198.61 1.198 2.105-.353 2.105-1.198 2.105zm-6.427 0c-.845 0-1.198-.61-1.198-2.105s.353-2.105 1.198-2.105 1.198.61 1.198 2.105-.353 2.105-1.198 2.105zm12.008 4.317c-.21-.63-.157-1.316.142-1.91.853-1.692 1.243-3.657.985-5.735-.558-4.486-4.176-8.113-8.664-8.66-6.508-.794-11.974 4.672-11.18 11.18.547 4.488 4.174 8.107 8.66 8.664 2.078.259 4.042-.132 5.735-.984.594-.3 1.28-.353 1.91-.143l2.037.679c.651.217 1.271-.403 1.054-1.054l-.679-2.037z"/>
</svg>
